common/svg/twitter-icon.svg

<svg fill="none" height="20" viewBox="0 0 20 20" width="20" xmlns="http://www.w3.org/2000/svg"><path d="m6.28251 18.75c7.54699 0 11.67669-6.2537 11.67669-11.66769 0-.17594 0-.35187-.008-.52781.8003-.57578 1.4966-1.30352 2.0488-2.12721-.7363.32788-1.5286.5438-2.3609.64776.8483-.50381 1.4966-1.31152 1.8087-2.27116-.7923.47182-1.6727.8077-2.6091.99163-.7523-.7997-1.8167-1.29552-2.9932-1.29552-2.2649 0-4.1056 1.83932-4.1056 4.10248 0 .31989.04001.63177.10404.93566-3.40937-.16794-6.43458-1.80733-8.45939-4.28642-.35214.60778-.552217 1.31152-.552217 2.06324 0 1.42347.728287 2.67901 1.824727 3.41474-.67227-.02399-1.30452-.20792-1.85674-.51181v.05598c0 1.98323 1.41657 3.64663 3.28932 4.02253-.34414.0959-.70429.1439-1.08044.1439-.2641 0-.5202-.024-.7683-.0719.5202 1.6314 2.04081 2.8149 3.83353 2.8469-1.40856 1.1036-3.17727 1.7594-5.098039 1.7594-.328131 0-.656263-.016-.976391-.056 1.80872 1.1516 3.96959 1.8313 6.28251 1.8313z" fill="#000"/></svg>

<svg width="20" height="20" viewBox="0 0 20 20" fill="none" xmlns="http://www.w3.org/2000/svg">
<path d="M6.28251 18.75C13.8295 18.75 17.9592 12.4963 17.9592 7.08231C17.9592 6.90637 17.9592 6.73044 17.9512 6.5545C18.7515 5.97872 19.4478 5.25098 20 4.42729C19.2637 4.75517 18.4714 4.97109 17.6391 5.07505C18.4874 4.57124 19.1357 3.76353 19.4478 2.80389C18.6555 3.27571 17.7751 3.61159 16.8387 3.79552C16.0864 2.99582 15.022 2.5 13.8455 2.5C11.5806 2.5 9.7399 4.33932 9.7399 6.60248C9.7399 6.92237 9.77991 7.23425 9.84394 7.53814C6.43457 7.3702 3.40936 5.73081 1.38455 3.25172C1.03241 3.8595 0.832333 4.56324 0.832333 5.31496C0.832333 6.73843 1.56062 7.99397 2.65706 8.7297C1.98479 8.70571 1.35254 8.52178 0.80032 8.21789C0.80032 8.23388 0.80032 8.24988 0.80032 8.27387C0.80032 10.2571 2.21689 11.9205 4.08964 12.2964C3.7455 12.3923 3.38535 12.4403 3.0092 12.4403C2.7451 12.4403 2.489 12.4163 2.2409 12.3684C2.7611 13.9998 4.28171 15.1833 6.07443 15.2153C4.66587 16.3189 2.89716 16.9747 0.976391 16.9747C0.64826 16.9747 0.320128 16.9587 0 16.9187C1.80872 18.0703 3.96959 18.75 6.28251 18.75Z" fill="black"/>
</svg>
